X:270
T:Reel 270
M:4/4
K:Dmaj
L:1/8
 (3ABc |dAFA DFAd|BGEF GB (3ABc |dAFA DAFA|GFEF G2AG|DFAc BGFD|EA, (3A,B,A, EA,DC|DCDE FdAg|fgec d2| (3ABc |dAFA dAFA|ecAd BAGA|dAFA dAFD|CDEF G2FA|dAFA dAFA|defd cdBc|dcdB AGFD|EDCE AGFE|DAFD ADFA|DFAd AdBc| (3def  (3efe fdec|BGGF GABc|dAFA DAFA|dAFD CDFA|BFGA BAGA|BGEC D2|
